X:1
T:St. Peter’s, Westminster, 87.87.87
T:St. Peter’s, Westminster, 87.87.87
T:James Turle, 1863
T:Public Domain Courtesy of the Cyber Hymnal™
C:James Turle, 1863
Z:Public Domain
Z:Courtesy of the Cyber Hymnal™
%%score ( 1 2 ) ( 3 4 )
L:1/8
Q:1/4=115
M:4/4
K:C
V:1 treble 
V:2 treble 
V:3 bass 
V:4 bass 
V:1
 C2 [A,C]2 [G,C]3 [B,D] | [CE]2 [DF]2 [CE]2 [B,D]2 | [CE]2 [CF]2 [DG]3 [EG] | [FA]2 [FA]2 [EG]4 | %4
 e2 e2 d2 [DG]2 | [Cc]2 ([EB][FA]) G2 C2 | A2 (d^c) [DB]2 [^Cc]2 | [CE]2 [B,D]2 C4 x | %8
 [Cc]2 [Fc]2 c2 [Cc]2 | [Gc]2 [FA]2 ([EG][DF]) [CE]2 | [Ee]3 [Fd] [Gc]2 [CE]2 | [CG]2 [B,G]2 C4 |] %12
V:2
 C2 x6 | x8 | x8 | x8 | (EF) (GA) (DC) x2 | x4 (GE) C2 | (^CC) D2 x4 | x4 C4 x | x4 (ED) x2 | x8 | %10
 x8 | x4 C4 |] %12
V:3
 [C,E,]2 [C,F,]2 [C,E,]3 [G,,G,] | [C,G,]2 [F,A,]2 G,2 [G,,G,]2 | [C,G,]2 [A,,A,]2 [G,,B,]3 [C,C] | %3
 ([F,A,][G,B,]) ([A,C][B,D]) [CE]4 | C2 C2 (B,A,) [G,B,]2 | A,2 C2 [E,C]2 [E,G,]2 | %6
 ([F,A,][E,G,]) [F,A,]2 G,2 G,2 | G,3 z F, [C,E,]4 | [C,E,]2 [C,A,]2 (G,F,) [C,E,]2 | %9
 [E,C]2 [F,C]2 C2 [C,G,]2 | [C,G,]3 [D,B,] [E,C]2 [A,,C,]2 | [G,,D,]2 [G,,D,]2 [C,E,]4 |] %12
V:4
 x8 | x4 G,2 x2 | x8 | x8 | (C,D,) E,F, G,2 x2 | A,2 (G,F,) x4 | x4 G,2 (E,C,) | G,2 G,,2 x5 | %8
 x4 C,2 x2 | x4 C2 x2 | x8 | x8 |] %12

